Waterleaf/32x32/apps/tdenetworkmanager.svg

<?xml version="1.0" encoding="UTF-8" standalone="no"?>
<!-- Created with Inkscape (http://www.inkscape.org/) -->

<svg
   xmlns:dc="http://purl.org/dc/elements/1.1/"
   xmlns:cc="http://creativecommons.org/ns#"
   xmlns:rdf="http://www.w3.org/1999/02/22-rdf-syntax-ns#"
   xmlns:svg="http://www.w3.org/2000/svg"
   xmlns="http://www.w3.org/2000/svg"
   xmlns:sodipodi="http://sodipodi.sourceforge.net/DTD/sodipodi-0.dtd"
   xmlns:inkscape="http://www.inkscape.org/namespaces/inkscape"
   version="1.1"
   id="svg2"
   width="32"
   height="32"
   viewBox="0 0 32 32"
   sodipodi:docname="tdenetworkmanager.svg"
   inkscape:version="0.92.4 (5da689c313, 2019-01-14)"
   inkscape:export-filename="/home/john/Nextcloud/Q4OS Stuff/tdevelop.png"
   inkscape:export-xdpi="96"
   inkscape:export-ydpi="96">
  <metadata
     id="metadata8">
    <rdf:RDF>
      <cc:Work
         rdf:about="">
        <dc:format>image/svg+xml</dc:format>
        <dc:type
           rdf:resource="http://purl.org/dc/dcmitype/StillImage" />
        <dc:title />
      </cc:Work>
    </rdf:RDF>
  </metadata>
  <defs
     id="defs6" />
  <sodipodi:namedview
     pagecolor="#ffffff"
     bordercolor="#666666"
     borderopacity="1"
     objecttolerance="10"
     gridtolerance="10"
     guidetolerance="10"
     inkscape:pageopacity="0"
     inkscape:pageshadow="2"
     inkscape:window-width="1362"
     inkscape:window-height="695"
     id="namedview4"
     showgrid="true"
     fit-margin-top="0"
     fit-margin-left="0"
     fit-margin-right="0"
     fit-margin-bottom="0"
     showguides="true"
     inkscape:zoom="16.125"
     inkscape:cx="16"
     inkscape:cy="16"
     inkscape:window-x="0"
     inkscape:window-y="0"
     inkscape:window-maximized="1"
     inkscape:current-layer="svg2"
     inkscape:snap-grids="true">
    <inkscape:grid
       type="xygrid"
       id="grid822" />
  </sodipodi:namedview>
  <ellipse
     style="opacity:1;fill:#2e7d32;fill-opacity:1;stroke-width:0.73170733"
     id="path5219-3"
     cx="16"
     cy="15.999998"
     rx="15"
     ry="15.000003" />
  <path
     inkscape:connector-curvature="0"
     style="opacity:0.2;fill:#ffffff;stroke-width:0.53571236"
     d="M 16.000039,0.9999715 A 14.999943,14.999943 0 0 0 1.0000957,15.999931 14.999943,14.999943 0 0 0 1.0114431,16.31396 14.999943,14.999943 0 0 1 15.999871,1.5358419 14.999943,14.999943 0 0 1 30.988566,16.221821 14.999943,14.999943 0 0 0 30.999914,15.999979 14.999943,14.999943 0 0 0 15.99997,1.0000197 Z"
     id="path5512-1" />
  <path
     inkscape:connector-curvature="0"
     style="opacity:1;fill:#ffffff;stroke-width:1.50013101"
     class="ColorScheme-Text"
     d="m 16.175808,4.0012435 a 12.001811,12.00028 0 0 0 -8.6614637,3.5157088 12.001811,12.00028 0 0 0 0,16.9691487 12.001811,12.00028 0 0 0 16.9713117,0 12.001811,12.00028 0 0 0 0,-16.9691487 12.001811,12.00028 0 0 0 -8.309848,-3.5157088 z m -0.328173,1.5000356 a 10.501585,10.500248 0 0 1 7.020589,2.5723263 L 20.761463,10.180101 A 12.001046,7.5006538 44.991678 0 0 12.624491,6.0667218 10.501585,10.500248 0 0 1 15.847635,5.5012791 Z M 11.305934,7.4612869 A 10.500916,6.0005228 44.992816 0 1 19.697826,11.2436 L 16.000001,14.940954 9.1727992,8.1146225 A 10.500916,6.0005228 44.992816 0 1 11.305934,7.4612869 Z m 12.631787,1.6641016 a 10.501585,10.500248 0 0 1 2.004211,10.2160595 12.001046,7.5006538 44.991678 0 0 -4.125623,-8.094917 z m -15.828558,0.046885 6.830132,6.8292615 -3.700754,3.700282 A 10.500916,6.0005228 44.992816 0 1 8.109163,9.1722662 Z m 12.6523,3.1289765 a 10.500916,6.0005228 44.992816 0 1 3.129378,10.529544 L 17.060707,16.001532 Z M 6.0580714,12.66161 a 12.001046,7.5006538 44.991678 0 0 4.1256226,8.094917 L 8.062281,22.87767 A 10.501585,10.500248 0 0 1 6.0580714,12.66161 Z m 9.9419296,4.400493 6.827203,6.826334 A 10.500916,6.0005228 44.992816 0 1 12.30218,20.759454 Z m -4.76146,4.760855 a 12.001046,7.5006538 44.991678 0 0 8.136971,4.11338 10.501585,10.500248 0 0 1 -10.2437343,-2.006886 z"
     id="path5" />
</svg>

<!-- Created with Inkscape (http://www.inkscape.org/) -->
<svg width="32" height="32" version="1.1" viewBox="0 0 32 32" xmlns="http://www.w3.org/2000/svg">
 <ellipse cx="16" cy="16" rx="15" ry="15" fill="#2e7d32" stroke-width=".73171"/>
 <path class="ColorScheme-Text" d="m16.176 4.0012a12.002 12 0 0 0-8.6615 3.5157 12.002 12 0 0 0 0 16.969 12.002 12 0 0 0 16.971 0 12.002 12 0 0 0 0-16.969 12.002 12 0 0 0-8.3098-3.5157zm-0.32817 1.5a10.502 10.5 0 0 1 7.0206 2.5723l-2.1068 2.1065a12.001 7.5007 44.992 0 0-8.137-4.1134 10.502 10.5 0 0 1 3.2231-0.56544zm-4.5417 1.96a10.501 6.0005 44.993 0 1 8.3919 3.7823l-3.6978 3.6974-6.8272-6.8263a10.501 6.0005 44.993 0 1 2.1331-0.65334zm12.632 1.6641a10.502 10.5 0 0 1 2.0042 10.216 12.001 7.5007 44.992 0 0-4.1256-8.0949zm-15.829 0.046885 6.8301 6.8293-3.7008 3.7003a10.501 6.0005 44.993 0 1-3.1294-10.53zm12.652 3.129a10.501 6.0005 44.993 0 1 3.1294 10.53l-6.8301-6.8293zm-14.703 0.36036a12.001 7.5007 44.992 0 0 4.1256 8.0949l-2.1214 2.1211a10.502 10.5 0 0 1-2.0042-10.216zm9.9419 4.4005 6.8272 6.8263a10.501 6.0005 44.993 0 1-10.525-3.129zm-4.7615 4.7609a12.001 7.5007 44.992 0 0 8.137 4.1134 10.502 10.5 0 0 1-10.244-2.0069z" fill="#fff" stroke-width="1.5001"/>
</svg>
